web/packages/design/src/ResourceIcon/assets/stripe-light.svg

<svg width="72" height="72" viewBox="0 0 72 72" fill="none" xmlns="http://www.w3.org/2000/svg">
<path fill-rule="evenodd" clip-rule="evenodd" d="M71.9276 37.2939H62.207C62.4362 39.6215 64.1367 40.3693 66.0663 40.3693C68.0442 40.3693 69.6362 39.923 70.9508 39.2235V43.2276C69.2825 44.1874 67.3737 44.6479 65.4513 44.5542C60.6151 44.5542 57.2141 41.5391 57.2141 35.5331C57.2141 30.4798 60.0965 26.4637 64.8121 26.4637C69.5397 26.4637 72 30.4195 72 35.509C72 35.9914 71.9518 37.0286 71.9276 37.2939ZM64.7879 30.516C63.5457 30.516 62.1709 31.3964 62.1709 33.6276H67.2965C67.2965 31.3964 66.006 30.516 64.7879 30.516ZM49.3869 44.5542C47.6503 44.5542 46.5889 43.8306 45.8894 43.2999L45.8653 48.8838L40.8965 49.9331V26.7894H45.4312L45.5276 28.0195C46.5794 27.0219 47.9735 26.4651 49.4231 26.4637C52.9206 26.4637 56.201 29.5994 56.201 35.3884C56.201 41.6959 52.9447 44.5542 49.3869 44.5542ZM48.2412 30.8657C47.0955 30.8657 46.3839 31.2758 45.8653 31.8426L45.8894 39.2235C46.3719 39.7542 47.0714 40.1642 48.2412 40.1642C50.0744 40.1642 51.3045 38.1743 51.3045 35.4969C51.3045 32.9039 50.0503 30.8657 48.2412 30.8657ZM34.0583 26.7894H39.0392V44.2044H34.0583V26.7894ZM34.0583 21.121L39.0392 20.0718V24.124L34.0583 25.1853V21.1331V21.121ZM28.8482 32.3974V44.2044H23.8794V26.7894H28.3417L28.4864 28.2607C29.6925 26.126 32.1889 26.5602 32.8523 26.7894V31.3602C32.2251 31.1552 30.0905 30.8416 28.8482 32.3974ZM18.5367 38.0899C18.5367 41.0205 21.6724 40.116 22.2995 39.8507V43.9029C21.6362 44.2647 20.4422 44.5542 18.8141 44.5542C18.1355 44.574 17.46 44.4555 16.8286 44.206C16.1973 43.9565 15.6233 43.5812 15.1415 43.1028C14.6598 42.6245 14.2804 42.0532 14.0265 41.4236C13.7725 40.794 13.6493 40.1193 13.6643 39.4406L13.6764 23.5572L18.5246 22.52V26.7894H22.3116V31.0467H18.5367V38.1019V38.0899ZM12.6151 38.9341C12.6151 42.516 9.82915 44.5542 5.70452 44.5542C3.85365 44.5528 2.02281 44.171 0.325628 43.4326V38.6929C1.98995 39.5974 4.06432 40.2728 5.70452 40.2728C6.81407 40.2728 7.54975 39.9833 7.54975 39.0668C7.54975 36.6788 0 37.5713 0 32.0718C0 28.5622 2.74975 26.4637 6.77789 26.4637C8.41809 26.4637 10.0583 26.7049 11.7106 27.3683V32.0477C10.1837 31.2441 8.49087 30.8064 6.76583 30.7693C5.72864 30.7693 5.02915 31.0708 5.02915 31.8547C5.02915 34.0858 12.6151 33.0245 12.6151 38.9461V38.9341Z" fill="black"/>
</svg>

<svg xmlns="http://www.w3.org/2000/svg" width="72" height="72" fill="none" viewBox="0 0 72 72"><path fill="#000" fill-rule="evenodd" d="M71.928 37.294h-9.721c.23 2.328 1.93 3.075 3.86 3.075 1.977 0 3.57-.446 4.884-1.145v4.004a10.05 10.05 0 0 1-5.5 1.326c-4.836 0-8.237-3.015-8.237-9.02 0-5.054 2.883-9.07 7.598-9.07 4.728 0 7.188 3.956 7.188 9.045 0 .482-.048 1.52-.072 1.785m-7.14-6.778c-1.242 0-2.617.88-2.617 3.112h5.125c0-2.232-1.29-3.112-2.508-3.112M49.387 44.554c-1.737 0-2.798-.723-3.498-1.254l-.024 5.584-4.968 1.05V26.788h4.534l.097 1.23a5.67 5.67 0 0 1 3.895-1.555c3.498 0 6.778 3.135 6.778 8.924 0 6.308-3.256 9.166-6.814 9.166M48.24 30.866c-1.145 0-1.857.41-2.376.977l.024 7.38c.483.531 1.182.941 2.352.941 1.833 0 3.063-1.99 3.063-4.667 0-2.593-1.254-4.631-3.063-4.631m-14.183-4.077h4.981v17.415h-4.98zm0-5.668 4.981-1.05v4.053l-4.98 1.061v-4.064m-5.21 11.276v11.807H23.88V26.79h4.463l.144 1.472c1.206-2.135 3.703-1.7 4.366-1.472v4.571c-.627-.205-2.761-.518-4.004 1.037M18.537 38.09c0 2.93 3.135 2.026 3.762 1.76v4.053c-.663.362-1.857.651-3.485.651a5.005 5.005 0 0 1-5.15-5.113l.012-15.884 4.849-1.037v4.27h3.787v4.257h-3.775v7.055zm-5.922.844c0 3.582-2.786 5.62-6.91 5.62a13.5 13.5 0 0 1-5.38-1.121v-4.74c1.665.904 3.74 1.58 5.38 1.58 1.11 0 1.845-.29 1.845-1.206C7.55 36.679 0 37.57 0 32.072c0-3.51 2.75-5.608 6.778-5.608 1.64 0 3.28.24 4.933.904v4.68a11.1 11.1 0 0 0-4.945-1.279c-1.037 0-1.737.302-1.737 1.086 0 2.23 7.586 1.17 7.586 7.091z" clip-rule="evenodd"/></svg>
